X:815
T:The Piper's Picnic
N:"Collected by McFadden"
B:O'Neill's 815
Z:Transcribed by Dan G. Petersen, dangp@post6.tele.dk
M:6/8
L:1/8
K:A
E|AcA BGE|cde dBG|AcA BGE|FEDE GAB|
AcA BGE|cde dBG|dcBA BGE|EFG A2:|
A/2B/2|ceA ceA|cee edc|B/2c/dG B/2c/2dG|Bdd dcB|
cde dcB|dcBA Ggf|ecA GED|EFG A2:|
